svg/emoji_u21aa.svg

<svg enable-background="new 0 0 128 128" viewBox="0 0 128 128" xmlns="http://www.w3.org/2000/svg"><linearGradient id="a" x1="64" x2="64" y1="4.25" y2="124.41" gradientUnits="userSpaceOnUse"><stop stop-color="#40C4FF" offset="0"/><stop stop-color="#2DB5F9" offset=".3517"/><stop stop-color="#0091EA" offset="1"/></linearGradient><path d="m116 124h-104c-4.42 0-8-3.58-8-8v-104c0-4.42 3.58-8 8-8h104c4.42 0 8 3.58 8 8v104c0 4.42-3.58 8-8 8z" fill="url(#a)"/><g opacity=".2"><path d="m116 7c2.76 0 5 2.24 5 5v104c0 2.76-2.24 5-5 5h-104c-2.76 0-5-2.24-5-5v-104c0-2.76 2.24-5 5-5h104m0-3h-104c-4.42 0-8 3.58-8 8v104c0 4.42 3.58 8 8 8h104c4.42 0 8-3.58 8-8v-104c0-4.42-3.58-8-8-8z" fill="#424242"/></g><g opacity=".2"><path d="m76 22c2.21 0 4 1.79 4 4v8c0 2.21-1.79 4-4 4h-32c-6.5 0-12 7.33-12 16s5.5 16 12 16h34c1.1 0 2-0.9 2-2v-13.99c0-2.39 1.96-4.01 4.02-4.01 0.9 0 1.82 0.31 2.61 1l24 23.99c1.82 1.59 1.82 4.43 0 6.02l-24 23.99c-0.79 0.69-1.71 1-2.61 1-2.06 0-4.02-1.62-4.02-4.01v-13.99c0-1.1-0.9-2-2-2h-34c-15.46 0-28-14.33-28-32s12.54-32 28-32h32m0-3h-32c-17.09 0-31 15.7-31 35s13.91 35 31 35h33v12.99c0 3.86 3.15 7.01 7.02 7.01 1.68 0 3.3-0.62 4.59-1.74l0.14-0.14 23.94-23.93c1.47-1.33 2.31-3.21 2.31-5.19s-0.84-3.87-2.31-5.19l-24-24-0.08-0.07c-1.28-1.12-2.91-1.74-4.59-1.74-3.87 0-7.02 3.14-7.02 7.01v12.99h-33c-4.79 0-9-6.07-9-13s4.21-13 9-13h32c3.86 0 7-3.14 7-7v-8c0-3.86-3.14-7-7-7z" fill="#424242"/></g><path d="M44,22h32c2.21,0,4,1.79,4,4v8c0,2.21-1.79,4-4,4H44c-6.5,0-12,7.33-12,16s5.5,16,12,16h34 c1.1,0,2-0.9,2-2V54.01c0-3.44,4.05-5.27,6.63-3.01l24,23.99c1.82,1.59,1.82,4.43,0,6.02l-24,23.99c-2.59,2.26-6.63,0.43-6.63-3.01 V88c0-1.1-0.9-2-2-2H44c-15.46,0-28-14.33-28-32S28.54,22,44,22z" fill="#FAFAFA"/></svg>

<svg width="128" height="128" style="enable-background:new 0 0 128 128;" xmlns="http://www.w3.org/2000/svg" xmlns:xlink="http://www.w3.org/1999/xlink">
  <g>
    <linearGradient id="SVGID_1_" gradientUnits="userSpaceOnUse" x1="64" x2="64" y1="4.25" y2="124.4088">
      <stop offset="0" style="stop-color:#40C4FF"/>
      <stop offset="0.3517" style="stop-color:#2DB5F9"/>
      <stop offset="1" style="stop-color:#0091EA"/>
    </linearGradient>
    <path d="M116,124H12c-4.42,0-8-3.58-8-8V12c0-4.42,3.58-8,8-8h104c4.42,0,8,3.58,8,8v104 C124,120.42,120.42,124,116,124z" style="fill:url(#SVGID_1_);"/>
    <g style="opacity:0.2;">
      <path d="M116,7c2.76,0,5,2.24,5,5v104c0,2.76-2.24,5-5,5H12c-2.76,0-5-2.24-5-5V12c0-2.76,2.24-5,5-5H116 M116,4H12c-4.42,0-8,3.58-8,8v104c0,4.42,3.58,8,8,8h104c4.42,0,8-3.58,8-8V12C124,7.58,120.42,4,116,4L116,4z" style="fill:#424242;"/>
    </g>
    <g style="opacity:0.2;">
      <path d="M76,22c2.21,0,4,1.79,4,4v8c0,2.21-1.79,4-4,4H44c-6.5,0-12,7.33-12,16s5.5,16,12,16h34 c1.1,0,2-0.9,2-2V54.01c0-2.39,1.96-4.01,4.02-4.01c0.9,0,1.82,0.31,2.61,1l24,23.99c1.82,1.59,1.82,4.43,0,6.02l-24,23.99 c-0.79,0.69-1.71,1-2.61,1c-2.06,0-4.02-1.62-4.02-4.01V88c0-1.1-0.9-2-2-2H44c-15.46,0-28-14.33-28-32s12.54-32,28-32H76 M76,19 H44c-17.09,0-31,15.7-31,35s13.91,35,31,35h33v12.99c0,3.86,3.15,7.01,7.02,7.01c1.68,0,3.3-0.62,4.59-1.74l0.07-0.07l0.07-0.07 l23.94-23.93c1.47-1.33,2.31-3.21,2.31-5.19c0-1.98-0.84-3.87-2.31-5.19L88.76,48.88l-0.07-0.07l-0.08-0.07 C87.33,47.62,85.7,47,84.02,47C80.15,47,77,50.14,77,54.01V67H44c-4.79,0-9-6.07-9-13s4.21-13,9-13h32c3.86,0,7-3.14,7-7v-8 C83,22.14,79.86,19,76,19L76,19z" style="fill:#424242;"/>
    </g>
    <path d="M44,22h32c2.21,0,4,1.79,4,4v8c0,2.21-1.79,4-4,4H44c-6.5,0-12,7.33-12,16s5.5,16,12,16h34 c1.1,0,2-0.9,2-2V54.01c0-3.44,4.05-5.27,6.63-3.01l24,23.99c1.82,1.59,1.82,4.43,0,6.02l-24,23.99c-2.59,2.26-6.63,0.43-6.63-3.01 V88c0-1.1-0.9-2-2-2H44c-15.46,0-28-14.33-28-32S28.54,22,44,22z" style="fill:#FAFAFA;"/>
  </g>
</svg>
